Obsidian/actions/24s/shapes.svg

<svg height="24" viewBox="0 0 24 24" width="24" xmlns="http://www.w3.org/2000/svg"><path d="m3.5 1a2.5 2.5 0 0 0 -2.5 2.5 2.5 2.5 0 0 0 2.5 2.5 2.5 2.5 0 0 0 2.5-2.5 2.5 2.5 0 0 0 -2.5-2.5zm6.5 0v5h5v-5zm-8 8v6h3v-6zm10 0-3 6h6z" fill="#bebebe" transform="translate(4 4)"/></svg>

<svg xmlns="http://www.w3.org/2000/svg" width="24" height="24" viewBox="0 0 24 24">
 <defs>
  <style id="current-color-scheme" type="text/css">
   .ColorScheme-Text { color:#bebebe; } .ColorScheme-Highlight { color:#4285f4; }
  </style>
 </defs>
 <path style="fill:currentColor" class="ColorScheme-Text" d="M 3.5 1 A 2.5 2.5 0 0 0 1 3.5 A 2.5 2.5 0 0 0 3.5 6 A 2.5 2.5 0 0 0 6 3.5 A 2.5 2.5 0 0 0 3.5 1 z M 10 1 L 10 6 L 15 6 L 15 1 L 10 1 z M 2 9 L 2 15 L 5 15 L 5 9 L 2 9 z M 12 9 L 9 15 L 15 15 L 12 9 z" transform="translate(4 4)"/>
</svg>
